dataset/solaar/icon.svg

<?xml version="1.0" encoding="UTF-8" standalone="no"?>
<svg
   viewBox="0 0 128 128"
   style="display:inline;enable-background:new"
   version="1.0"
   id="svg11300"
   height="128"
   width="128"
   xml:space="preserve"
   xmlns:xlink="http://www.w3.org/1999/xlink"
   xmlns="http://www.w3.org/2000/svg"
   xmlns:svg="http://www.w3.org/2000/svg"
   xmlns:rdf="http://www.w3.org/1999/02/22-rdf-syntax-ns#"
   xmlns:cc="http://creativecommons.org/ns#"
   xmlns:dc="http://purl.org/dc/elements/1.1/"><title
     id="title4162">Adwaita Icon Template</title><defs
     id="defs3"><linearGradient
       id="linearGradient15"
       gradientUnits="userSpaceOnUse"
       x1="0"
       y1="269.46301"
       x2="118.926"
       y2="269.46301"
       gradientTransform="matrix(1,0,0,0.98333333,-8.999995,-382.03333)"><stop
         offset="0"
         stop-color="#e5a50a"
         id="stop12"
         style="stop-color:#006066;stop-opacity:1;" /><stop
         offset="0.414"
         stop-color="#fbdf9b"
         id="stop13"
         style="stop-color:#00c0cc;stop-opacity:1;" /><stop
         offset="0.81300002"
         stop-color="#e5a50a"
         id="stop14"
         style="stop-color:#006066;stop-opacity:1;" /><stop
         offset="1"
         stop-color="#f8ca5b"
         id="stop15"
         style="stop-color:#00a8b2;stop-opacity:1;" /></linearGradient><linearGradient
       id="linearGradient7"><stop
         style="stop-color:#006066;stop-opacity:1;"
         offset="0"
         id="stop2" /><stop
         id="stop3"
         offset="0.04166667"
         style="stop-color:#00c0cc;stop-opacity:1;" /><stop
         style="stop-color:#006066;stop-opacity:1;"
         offset="0.08333334"
         id="stop4" /><stop
         id="stop5"
         offset="0.91666669"
         style="stop-color:#006066;stop-opacity:1;" /><stop
         style="stop-color:#00c0cc;stop-opacity:1;"
         offset="0.95833331"
         id="stop6" /><stop
         style="stop-color:#006066;stop-opacity:1;"
         offset="1"
         id="stop7" /></linearGradient><linearGradient
       xlink:href="#linearGradient7"
       id="linearGradient2"
       x1="12"
       y1="66"
       x2="116"
       y2="66"
       gradientUnits="userSpaceOnUse" /><linearGradient
       id="gradient_blue"><stop
         style="stop-color:#009099;stop-opacity:1"
         offset="0"
         id="stop1" /><stop
         style="stop-color:#00a899;stop-opacity:0.9"
         offset="1"
         id="stop2-3" /></linearGradient><linearGradient
       xlink:href="#gradient_blue"
       id="linearGradient9"
       x1="12"
       y1="62"
       x2="116"
       y2="62"
       gradientUnits="userSpaceOnUse" /><linearGradient
       xlink:href="#gradient_blue"
       id="linearGradient11"
       x1="50.111328"
       y1="64"
       x2="77.888672"
       y2="64"
       gradientUnits="userSpaceOnUse"
       gradientTransform="translate(0,-2)" /><linearGradient
       xlink:href="#linearGradient15"
       id="linearGradient12"
       gradientUnits="userSpaceOnUse"
       x1="50.111328"
       y1="64"
       x2="77.888672"
       y2="64"
       gradientTransform="translate(0,2)" /></defs><metadata
     id="metadata4"><rdf:RDF><cc:Work
         rdf:about=""><dc:format>image/svg+xml</dc:format><dc:type
           rdf:resource="http://purl.org/dc/dcmitype/StillImage" /><dc:creator><cc:Agent><dc:title>GNOME Design Team</dc:title></cc:Agent></dc:creator><dc:source /><cc:license
           rdf:resource="http://creativecommons.org/licenses/by-sa/4.0/" /><dc:title>Adwaita Icon Template</dc:title><dc:subject><rdf:Bag /></dc:subject><dc:date /><dc:rights><cc:Agent><dc:title /></cc:Agent></dc:rights><dc:publisher><cc:Agent><dc:title /></cc:Agent></dc:publisher><dc:identifier /><dc:relation /><dc:language /><dc:coverage /><dc:description /><dc:contributor><cc:Agent><dc:title /></cc:Agent></dc:contributor></cc:Work><cc:License
         rdf:about="http://creativecommons.org/licenses/by-sa/4.0/"><cc:permits
           rdf:resource="http://creativecommons.org/ns#Reproduction" /><cc:permits
           rdf:resource="http://creativecommons.org/ns#Distribution" /><cc:requires
           rdf:resource="http://creativecommons.org/ns#Notice" /><cc:requires
           rdf:resource="http://creativecommons.org/ns#Attribution" /><cc:permits
           rdf:resource="http://creativecommons.org/ns#DerivativeWorks" /><cc:requires
           rdf:resource="http://creativecommons.org/ns#ShareAlike" /></cc:License></rdf:RDF></metadata><path
     id="rect1"
     style="display:inline;fill:url(#linearGradient2);fill-opacity:1;stroke:none;stroke-width:0.25;stroke-linecap:butt;stroke-linejoin:miter;stroke-miterlimit:4;stroke-dasharray:none;stroke-dashoffset:0;stroke-opacity:1;marker:none;marker-start:none;marker-mid:none;marker-end:none;paint-order:normal;enable-background:new"
     d="m 20,16 c -4.432,0 -8,3.568 -8,8 v 84 c 0,4.432 3.568,8 8,8 h 88 c 4.432,0 8,-3.568 8,-8 V 24 c 0,-4.432 -3.568,-8 -8,-8 z M 50.117188,29.746094 59.873047,46.625 c 0.117328,0.204064 0.350514,0.312049 0.582031,0.269531 1.15546,-0.213142 2.336198,-0.339843 3.544922,-0.339843 1.208724,0 2.389462,0.126701 3.544922,0.339843 0.231517,0.04252 0.464703,-0.06547 0.582031,-0.269531 l 9.755859,-16.878906 10.566407,6.109375 -9.83024,13.169542 c 0,0 -0.0059,3.918153 0.0011,4.025329 0.0076,0.116939 0.05215,0.231265 0.131898,0.32466 1.534924,1.791754 2.736909,3.873272 3.542969,6.144531 0.0791,0.222032 0.289691,0.369991 0.52539,0.369141 H 102.33398 V 72.111328 H 82.820312 c -0.235699,-8.5e-4 -0.446287,0.147109 -0.52539,0.369141 -0.80606,2.271259 -2.140533,0.739389 -3.675457,2.531142 0,0 0.0073,3.823577 3.53e-4,3.941831 -0.0062,0.105964 0.01791,0.213911 0.07355,0.31023 L 88.449219,96.144531 77.882812,102.25391 68.126953,85.375 C 68.009625,85.170936 67.776439,85.062951 67.544922,85.105469 66.389462,85.318611 65.208724,85.445312 64,85.445312 c -1.208724,0 -2.389462,-0.126701 -3.544922,-0.339843 -0.231517,-0.04252 -0.464703,0.06547 -0.582031,0.269531 l -9.755859,16.87891 -10.566407,-6.109379 9.75586,-16.880859 c 0.05294,-0.09167 0.07733,-0.193865 0.07423,-0.294862 -0.0038,-0.12356 2.58e-4,-3.984374 2.58e-4,-3.984374 -1.534924,-1.791753 -2.869983,-0.232708 -3.676043,-2.503967 -0.0791,-0.222032 -0.28969,-0.369991 -0.52539,-0.369141 H 25.666016 V 59.888672 h 19.513672 c 0.2357,8.5e-4 0.446287,-0.147109 0.52539,-0.369141 0.80606,-2.271259 2.008045,-4.352777 3.542969,-6.144531 0.07159,-0.08384 0.114795,-0.184549 0.128404,-0.288873 0.01544,-0.118398 0.0036,-4.037422 0.0036,-4.037422 l -9.82927,-13.193236 z" /><path
     id="rect1711"
     style="display:inline;fill:url(#linearGradient9);fill-opacity:1;stroke:none;stroke-width:0.25;stroke-linecap:butt;stroke-linejoin:miter;stroke-miterlimit:4;stroke-dasharray:none;stroke-dashoffset:0;stroke-opacity:1;marker:none;marker-start:none;marker-mid:none;marker-end:none;paint-order:normal;enable-background:new"
     d="M 20 12 C 15.568 12 12 15.568 12 20 L 12 104 C 12 108.432 15.568 112 20 112 L 108 112 C 112.432 112 116 108.432 116 104 L 116 20 C 116 15.568 112.432 12 108 12 L 20 12 z M 50.117188 25.746094 L 59.873047 42.625 C 59.990375 42.829064 60.223561 42.937049 60.455078 42.894531 C 61.610538 42.681389 62.791276 42.554688 64 42.554688 C 65.208724 42.554688 66.389462 42.681389 67.544922 42.894531 C 67.776439 42.937051 68.009625 42.829061 68.126953 42.625 L 77.882812 25.746094 L 88.449219 31.855469 L 78.693359 48.736328 C 78.575643 48.940139 78.599123 49.196008 78.751953 49.375 C 80.286877 51.166754 81.488862 53.248272 82.294922 55.519531 C 82.374022 55.741563 82.584613 55.889522 82.820312 55.888672 L 102.33398 55.888672 L 102.33398 68.111328 L 82.820312 68.111328 C 82.584613 68.110478 82.374025 68.258437 82.294922 68.480469 C 81.488862 70.751728 80.286877 72.833247 78.751953 74.625 C 78.599119 74.803992 78.575643 75.059861 78.693359 75.263672 L 88.449219 92.144531 L 77.882812 98.253906 L 68.126953 81.375 C 68.009625 81.170936 67.776439 81.062951 67.544922 81.105469 C 66.389462 81.318611 65.208724 81.445312 64 81.445312 C 62.791276 81.445312 61.610538 81.318611 60.455078 81.105469 C 60.223561 81.062949 59.990375 81.170939 59.873047 81.375 L 50.117188 98.253906 L 39.550781 92.144531 L 49.306641 75.263672 C 49.424356 75.05986 49.400877 74.803991 49.248047 74.625 C 47.713123 72.833247 46.511138 70.751728 45.705078 68.480469 C 45.625978 68.258437 45.415388 68.110478 45.179688 68.111328 L 25.666016 68.111328 L 25.666016 55.888672 L 45.179688 55.888672 C 45.415388 55.889522 45.625975 55.741563 45.705078 55.519531 C 46.511138 53.248272 47.713123 51.166754 49.248047 49.375 C 49.400881 49.196008 49.424357 48.940139 49.306641 48.736328 L 39.550781 31.855469 L 50.117188 25.746094 z " /><path
     id="path11"
     style="baseline-shift:baseline;display:inline;overflow:visible;vector-effect:none;fill:url(#linearGradient12);enable-background:accumulate;stop-color:#000000"
     d="m 64,52.111328 c -7.538692,0 -13.689649,2.397548 -13.888672,9.888672 0,0 0,3.874652 0,4 0,7.664045 6.224632,13.888672 13.888672,13.888672 7.66404,0 13.888672,-6.224627 13.888672,-13.888672 0,-0.470078 -0.01565,-3.335607 -0.01565,-3.335607 C 77.17317,55.65307 71.193962,52.111328 64,52.111328 Z" /><path
     id="path9"
     style="baseline-shift:baseline;display:inline;overflow:visible;vector-effect:none;fill:url(#linearGradient11);enable-background:accumulate;stop-color:#000000"
     d="m 64,48.111328 c -7.66404,0 -13.888672,6.224627 -13.888672,13.888672 0,7.664045 6.224632,13.888672 13.888672,13.888672 7.66404,0 13.888672,-6.224627 13.888672,-13.888672 C 77.888672,54.335955 71.66404,48.111328 64,48.111328 Z" /><text
     style="font-style:normal;font-weight:400;font-size:13.8828px;font-family:Arial;fill:#ffffff;fill-opacity:1;fill-rule:evenodd;stroke:none;stroke-width:0.991632;stroke-linecap:square;stroke-linejoin:bevel;stroke-opacity:1"
     id="text1476"
     font-style="normal"
     font-weight="400"
     font-size="14"
     y="-283.35104"
     x="-192.37668"
     xml:space="preserve"
     transform="scale(1.008439,0.99163164)" /></svg>

<svg xmlns="http://www.w3.org/2000/svg" xmlns:xlink="http://www.w3.org/1999/xlink" xml:space="preserve" width="128" height="128" style="display:inline" viewBox="0 0 128 128"><title>Adwaita Icon Template</title><defs><linearGradient id="c" x1="0" x2="118.926" y1="269.463" y2="269.463" gradientTransform="matrix(1 0 0 .98333 -9 -382.033)" gradientUnits="userSpaceOnUse"><stop offset="0" stop-color="#e5a50a" style="stop-color:#006066;stop-opacity:1"/><stop offset=".414" stop-color="#fbdf9b" style="stop-color:#00c0cc;stop-opacity:1"/><stop offset=".813" stop-color="#e5a50a" style="stop-color:#006066;stop-opacity:1"/><stop offset="1" stop-color="#f8ca5b" style="stop-color:#00a8b2;stop-opacity:1"/></linearGradient><linearGradient id="a"><stop offset="0" style="stop-color:#006066;stop-opacity:1"/><stop offset=".042" style="stop-color:#00c0cc;stop-opacity:1"/><stop offset=".083" style="stop-color:#006066;stop-opacity:1"/><stop offset=".917" style="stop-color:#006066;stop-opacity:1"/><stop offset=".958" style="stop-color:#00c0cc;stop-opacity:1"/><stop offset="1" style="stop-color:#006066;stop-opacity:1"/></linearGradient><linearGradient xlink:href="#a" id="d" x1="12" x2="116" y1="66" y2="66" gradientUnits="userSpaceOnUse"/><linearGradient id="b"><stop offset="0" style="stop-color:#009099;stop-opacity:1"/><stop offset="1" style="stop-color:#00a899;stop-opacity:.9"/></linearGradient><linearGradient xlink:href="#b" id="e" x1="12" x2="116" y1="62" y2="62" gradientUnits="userSpaceOnUse"/><linearGradient xlink:href="#b" id="g" x1="50.111" x2="77.889" y1="64" y2="64" gradientTransform="translate(0 -2)" gradientUnits="userSpaceOnUse"/><linearGradient xlink:href="#c" id="f" x1="50.111" x2="77.889" y1="64" y2="64" gradientTransform="translate(0 2)" gradientUnits="userSpaceOnUse"/></defs><path d="M20 16c-4.432 0-8 3.568-8 8v84c0 4.432 3.568 8 8 8h88c4.432 0 8-3.568 8-8V24c0-4.432-3.568-8-8-8zm30.117 13.746 9.756 16.879c.117.204.35.312.582.27a19.5 19.5 0 0 1 3.545-.34c1.209 0 2.39.126 3.545.34a.56.56 0 0 0 .582-.27l9.756-16.879 10.566 6.11-9.83 13.169s-.006 3.918.001 4.025a.56.56 0 0 0 .132.325 19.4 19.4 0 0 1 3.543 6.145c.079.222.29.37.525.369h19.514V72.11H82.82a.56.56 0 0 0-.525.37c-.806 2.27-2.14.739-3.676 2.53 0 0 .008 3.824 0 3.942a.56.56 0 0 0 .074.31l9.756 16.882-10.566 6.109-9.756-16.879a.56.56 0 0 0-.582-.27c-1.156.214-2.336.34-3.545.34s-2.39-.126-3.545-.34a.56.56 0 0 0-.582.27l-9.756 16.879-10.566-6.11 9.756-16.88a.56.56 0 0 0 .074-.295c-.004-.124 0-3.985 0-3.985-1.535-1.791-2.87-.232-3.676-2.504a.56.56 0 0 0-.525-.369H25.666V59.89H45.18a.56.56 0 0 0 .525-.37 19.4 19.4 0 0 1 3.543-6.144.56.56 0 0 0 .128-.289c.016-.118.004-4.037.004-4.037l-9.83-13.194z" style="display:inline;fill:url(#d);fill-opacity:1;stroke:none;stroke-width:.25;stroke-linecap:butt;stroke-linejoin:miter;stroke-miterlimit:4;stroke-dasharray:none;stroke-dashoffset:0;stroke-opacity:1;marker:none;marker-start:none;marker-mid:none;marker-end:none;paint-order:normal"/><path d="M20 12c-4.432 0-8 3.568-8 8v84c0 4.432 3.568 8 8 8h88c4.432 0 8-3.568 8-8V20c0-4.432-3.568-8-8-8zm30.117 13.746 9.756 16.879c.117.204.35.312.582.27a19.5 19.5 0 0 1 3.545-.34c1.209 0 2.39.126 3.545.34a.56.56 0 0 0 .582-.27l9.756-16.879 10.566 6.11-9.756 16.88a.56.56 0 0 0 .059.639 19.4 19.4 0 0 1 3.543 6.145c.079.222.29.37.525.369h19.514V68.11H82.82a.56.56 0 0 0-.525.37 19.4 19.4 0 0 1-3.543 6.144.56.56 0 0 0-.059.639l9.756 16.88-10.566 6.11-9.756-16.879a.56.56 0 0 0-.582-.27c-1.156.214-2.336.34-3.545.34s-2.39-.126-3.545-.34a.56.56 0 0 0-.582.27l-9.756 16.879-10.566-6.11 9.756-16.88a.56.56 0 0 0-.059-.639 19.4 19.4 0 0 1-3.543-6.145.56.56 0 0 0-.525-.369H25.666V55.89H45.18a.56.56 0 0 0 .525-.37 19.4 19.4 0 0 1 3.543-6.144.56.56 0 0 0 .059-.639l-9.756-16.88z" style="display:inline;fill:url(#e);fill-opacity:1;stroke:none;stroke-width:.25;stroke-linecap:butt;stroke-linejoin:miter;stroke-miterlimit:4;stroke-dasharray:none;stroke-dashoffset:0;stroke-opacity:1;marker:none;marker-start:none;marker-mid:none;marker-end:none;paint-order:normal"/><path d="M64 52.111c-7.539 0-13.69 2.398-13.889 9.889v4c0 7.664 6.225 13.889 13.889 13.889S77.889 73.664 77.889 66c0-.47-.016-3.336-.016-3.336-.7-7.01-6.679-10.553-13.873-10.553" style="baseline-shift:baseline;display:inline;overflow:visible;vector-effect:none;fill:url(#f);stop-color:#000"/><path d="M64 48.111c-7.664 0-13.889 6.225-13.889 13.889S56.336 75.889 64 75.889 77.889 69.664 77.889 62 71.664 48.111 64 48.111" style="baseline-shift:baseline;display:inline;overflow:visible;vector-effect:none;fill:url(#g);stop-color:#000"/></svg>
